gama.ui.shared/icons_svg/light/layer/layer.image.svg

<svg height="24.75" viewBox="-750.056 -4079.201 24.75 24.75" width="24.75" xmlns="http://www.w3.org/2000/svg"><g fill="none"><path d="m-745.8407-4078.826h16.32c2.1208 0 3.84 1.7193 3.84 3.84v16.32c0 2.121-1.7192 3.84-3.84 3.84h-16.32c-2.1207 0-3.84-1.719-3.84-3.84v-16.32c0-2.1207 1.7193-3.84 3.84-3.84z" fill="#66727e"/><path d="m-745.6807-4071.6385c0-1.2081.8955-2.1875 2-2.1875h12c1.1046 0 2 .9794 2 2.1875v9.625c0 1.2082-.8954 2.1875-2 2.1875h-12c-1.1045 0-2-.9793-2-2.1875zm.8 0v9.625c0 .7249.5373 1.3125 1.2 1.3125h12c.6628 0 1.2-.5876 1.2-1.3125v-9.625c0-.7248-.5372-1.3125-1.2-1.3125h-12c-.6627 0-1.2.5877-1.2 1.3125zm10.4.4375h1.6c.4419 0 .8.392.8.875v1.75c0 .4833-.3581.875-.8.875h-1.6c-.4418 0-.8-.3917-.8-.875v-1.75c0-.483.3582-.875.8-.875zm0 .875v1.75h1.6v-1.75zm-10.5171 6.872c-.1562.1708-.4095.1708-.5657 0-.1562-.171-.1562-.448 0-.619l4-4.375c.1562-.1707.4095-.1707.5657 0l4.5171 4.941 2.1172-2.316c.1562-.1707.4095-.1707.5657 0l3.6 3.9377c.1562.1708.1562.4478 0 .6187s-.4095.1709-.5657 0l-3.3172-3.6281-2.1171 2.3157c-.1562.1708-.4095.1708-.5657 0l-4.5172-4.9407z" fill="#fff"/></g></svg>

<?xml version="1.0" encoding="UTF-8" standalone="no"?>
<!DOCTYPE svg PUBLIC "-//W3C//DTD SVG 1.1//EN" "http://www.w3.org/Graphics/SVG/1.1/DTD/svg11.dtd">
<svg version="1.1" xmlns="http://www.w3.org/2000/svg" xmlns:xl="http://www.w3.org/1999/xlink" xmlns:dc="http://purl.org/dc/elements/1.1/" viewBox="-750.0557 -4079.201 24.75 24.75" width="24.75" height="24.75">
  <defs/>
  <g id="SOURCES" stroke-dasharray="none" fill="none" stroke="none" fill-opacity="1" stroke-opacity="1">
    <title>SOURCES</title>
    <g id="SOURCES_Calque_2">
      <title>Calque 2</title>
      <g id="Graphic_8740">
        <title>views/view.other</title>
        <path d="M -745.8407 -4078.826 L -729.5207 -4078.826 C -727.3999 -4078.826 -725.6807 -4077.1067 -725.6807 -4074.986 L -725.6807 -4058.666 C -725.6807 -4056.545 -727.3999 -4054.826 -729.5207 -4054.826 L -745.8407 -4054.826 C -747.9614 -4054.826 -749.6807 -4056.545 -749.6807 -4058.666 L -749.6807 -4074.986 C -749.6807 -4077.1067 -747.9614 -4078.826 -745.8407 -4078.826 Z" fill="#66727e"/>
      </g>
      <g id="Graphic_8741">
        <path d="M -745.6807 -4071.6385 C -745.6807 -4072.8466 -744.7852 -4073.826 -743.6807 -4073.826 L -731.6807 -4073.826 C -730.5761 -4073.826 -729.6807 -4072.8466 -729.6807 -4071.6385 L -729.6807 -4062.0135 C -729.6807 -4060.8053 -730.5761 -4059.826 -731.6807 -4059.826 L -743.6807 -4059.826 C -744.7852 -4059.826 -745.6807 -4060.8053 -745.6807 -4062.0135 Z M -744.8807 -4071.6385 L -744.8807 -4062.0135 C -744.8807 -4061.2886 -744.3434 -4060.701 -743.6807 -4060.701 L -731.6807 -4060.701 C -731.0179 -4060.701 -730.4807 -4061.2886 -730.4807 -4062.0135 L -730.4807 -4071.6385 C -730.4807 -4072.3633 -731.0179 -4072.951 -731.6807 -4072.951 L -743.6807 -4072.951 C -744.3434 -4072.951 -744.8807 -4072.3633 -744.8807 -4071.6385 Z M -734.4807 -4071.201 L -732.8807 -4071.201 C -732.4388 -4071.201 -732.0807 -4070.809 -732.0807 -4070.326 L -732.0807 -4068.576 C -732.0807 -4068.0927 -732.4388 -4067.701 -732.8807 -4067.701 L -734.4807 -4067.701 C -734.9225 -4067.701 -735.2807 -4068.0927 -735.2807 -4068.576 L -735.2807 -4070.326 C -735.2807 -4070.809 -734.9225 -4071.201 -734.4807 -4071.201 Z M -734.4807 -4070.326 L -734.4807 -4068.576 L -732.8807 -4068.576 L -732.8807 -4070.326 Z M -744.9978 -4063.454 C -745.154 -4063.2832 -745.4073 -4063.2832 -745.5635 -4063.454 C -745.7197 -4063.625 -745.7197 -4063.902 -745.5635 -4064.073 L -741.5635 -4068.448 C -741.4073 -4068.6187 -741.154 -4068.6187 -740.9978 -4068.448 L -736.4807 -4063.507 L -734.3635 -4065.823 C -734.2073 -4065.9937 -733.954 -4065.9937 -733.7978 -4065.823 L -730.1978 -4061.8853 C -730.0416 -4061.7145 -730.0416 -4061.4375 -730.1978 -4061.2666 C -730.354 -4061.0957 -730.6073 -4061.0957 -730.7635 -4061.2666 L -734.0807 -4064.8947 L -736.1978 -4062.579 C -736.354 -4062.4082 -736.6073 -4062.4082 -736.7635 -4062.579 L -741.2807 -4067.5197 Z" fill="white"/>
      </g>
    </g>
  </g>
</svg>
